X:30
T: Eileen Murray's #1 (polka)
C: S. O Driscoll
Z: B.Black
L: 1/8
M: 2/4
R: polka
K: D
F>E | DF Af | ed B/2c/2d | AF DF | E2 AF |
DF Af | ed B/2c/2d | AF DE | D2 :|
d>e | fd B/2c/2d | Ad B/2c/2d | fd B/2c/2d |\
e2 d>e |
fd B/2c/2d | Ad B/2c/2d | AF EF | D2 :|
